X:9019
T:La Pedigüeña
R:Romance
C:Tradicional
S:Música Tradicional Asturiana, (C) Tello & Tito. Asturies, 2001.
S:http://pagina.de/MusTradAst <telloytito@asturies.org>
N:Romancero vulgar usado para el corro.
A:Asturies
Z:DyC en Teberga
M:3/4
L:1/8
Q:1/4=138
K:C
GF
|: E3 E FG|{G}A2 AG FE|D3 D EF|{F}G2-G-F ED|
|C3 E FG|{G}A2 AG FE|DG GD E-D-|[1 C4 GF :|[2 C4 z2|


